dist/img/svg/icon_work-item.svg

<svg width="35" height="36" viewBox="0 0 35 36" fill="none" xmlns="http://www.w3.org/2000/svg">
<path d="M0 12.0625V2.375C0 1.85417 0.182292 1.41146 0.546875 1.04688C0.911458 0.682292 1.35417 0.5 1.875 0.5H11.5625C12.1875 0.5 12.5 0.8125 12.5 1.4375V4.5625C12.5 5.1875 12.1875 5.5 11.5625 5.5H5V12.0625C5 12.6875 4.6875 13 4.0625 13H0.9375C0.3125 13 0 12.6875 0 12.0625ZM22.5 1.4375C22.5 0.8125 22.8125 0.5 23.4375 0.5H33.125C33.6458 0.5 34.0885 0.682292 34.4531 1.04688C34.8177 1.41146 35 1.85417 35 2.375V12.0625C35 12.6875 34.6875 13 34.0625 13H30.9375C30.3125 13 30 12.6875 30 12.0625V5.5H23.4375C22.8125 5.5 22.5 5.1875 22.5 4.5625V1.4375ZM34.0625 23C34.6875 23 35 23.3125 35 23.9375V33.625C35 34.1458 34.8177 34.5885 34.4531 34.9531C34.0885 35.3177 33.6458 35.5 33.125 35.5H23.4375C22.8125 35.5 22.5 35.1875 22.5 34.5625V31.4375C22.5 30.8125 22.8125 30.5 23.4375 30.5H30V23.9375C30 23.3125 30.3125 23 30.9375 23H34.0625ZM12.5 34.5625C12.5 35.1875 12.1875 35.5 11.5625 35.5H1.875C1.35417 35.5 0.911458 35.3177 0.546875 34.9531C0.182292 34.5885 0 34.1458 0 33.625V23.9375C0 23.3125 0.3125 23 0.9375 23H4.0625C4.6875 23 5 23.3125 5 23.9375V30.5H11.5625C12.1875 30.5 12.5 30.8125 12.5 31.4375V34.5625Z" fill="#333333"/>
</svg>

<svg width="35" height="36" viewBox="0 0 35 36" fill="none" xmlns="http://www.w3.org/2000/svg"><path d="M0 12.063V2.374c0-.52.182-.964.547-1.328A1.808 1.808 0 011.875.5h9.688c.624 0 .937.313.937.938v3.125c0 .625-.313.937-.938.937H5v6.563c0 .624-.313.937-.938.937H.938C.313 13 0 12.687 0 12.062zM22.5 1.437c0-.625.313-.937.938-.937h9.687c.52 0 .964.182 1.328.547.365.364.547.807.547 1.328v9.688c0 .624-.313.937-.938.937h-3.124c-.625 0-.938-.313-.938-.938V5.5h-6.563c-.625 0-.937-.313-.937-.938V1.438zM34.063 23c.624 0 .937.313.937.938v9.687c0 .52-.182.964-.547 1.328a1.808 1.808 0 01-1.328.547h-9.688c-.625 0-.937-.313-.937-.938v-3.124c0-.625.313-.938.938-.938H30v-6.563c0-.625.313-.937.938-.937h3.125zM12.5 34.563c0 .624-.313.937-.938.937H1.876c-.52 0-.964-.182-1.328-.547A1.808 1.808 0 010 33.625v-9.688C0 23.313.313 23 .938 23h3.125c.625 0 .937.313.937.938V30.5h6.563c.624 0 .937.313.937.938v3.125z" fill="#333"/></svg>
